X:14
T:no name Highland
R:highland
S:Paul O'Shaughnessy
H:Transcribed by Anders Clarh\"all
Z:hn-hf-14
M:C|
K:Amix
c<AAB cB (3AGF|G2B,D GA (3Bcd|c<AAB cAAd|(3fga (3fga gfed:|
cdef gfge|dBGB dged|cdef gfge|(3fga (3fga gfed|
cdef gfge|dBGB defg|(3aba fa gfec|Aafa (3gag (3fed||
<end>
<start>
